src/assets/outline/DirectNotification.svg

<?xml version="1.0" encoding="UTF-8"?>
<svg width="24" height="24" viewBox="0 0 24 24" xmlns="http://www.w3.org/2000/svg">
 <path d="m13.76 17.75h-3.53c-1.1 0-1.97-0.54-2.46-1.52l-0.89-1.79c-0.21-0.43-0.64-0.69-1.12-0.69h-3.78c-0.41 0-0.75-0.34-0.75-0.75s0.34-0.75 0.75-0.75h3.79c1.05 0 1.99 0.58 2.46 1.52l0.89 1.79c0.23 0.46 0.6 0.69 1.12 0.69h3.53c0.48 0 0.91-0.26 1.12-0.69l0.89-1.79c0.47-0.94 1.41-1.52 2.46-1.52h3.74c0.41 0 0.75 0.34 0.75 0.75s-0.34 0.75-0.75 0.75h-3.74c-0.48 0-0.91 0.26-1.12 0.69l-0.89 1.79c-0.48 0.94-1.42 1.52-2.47 1.52z"/>
 <path d="m19 8.75c-2.07 0-3.75-1.68-3.75-3.75s1.68-3.75 3.75-3.75 3.75 1.68 3.75 3.75-1.68 3.75-3.75 3.75zm0-6c-1.24 0-2.25 1.01-2.25 2.25s1.01 2.25 2.25 2.25 2.25-1.01 2.25-2.25-1.01-2.25-2.25-2.25z"/>
 <path d="m15 22.75h-6c-5.43 0-7.75-2.32-7.75-7.75v-6c0-5.43 2.32-7.75 7.75-7.75h5c0.41 0 0.75 0.34 0.75 0.75s-0.34 0.75-0.75 0.75h-5c-4.61 0-6.25 1.64-6.25 6.25v6c0 4.61 1.64 6.25 6.25 6.25h6c4.61 0 6.25-1.64 6.25-6.25v-5c0-0.41 0.34-0.75 0.75-0.75s0.75 0.34 0.75 0.75v5c0 5.43-2.32 7.75-7.75 7.75z"/>
</svg>

<svg width="24" height="24" viewBox="0 0 24 24"  xmlns="http://www.w3.org/2000/svg">
<path d="M13.76 17.75H10.23C9.12998 17.75 8.25998 17.21 7.76998 16.23L6.87998 14.44C6.66998 14.01 6.23998 13.75 5.75998 13.75H1.97998C1.56998 13.75 1.22998 13.41 1.22998 13C1.22998 12.59 1.56998 12.25 1.97998 12.25H5.76998C6.81998 12.25 7.75998 12.83 8.22998 13.77L9.11998 15.56C9.34998 16.02 9.71998 16.25 10.24 16.25H13.77C14.25 16.25 14.68 15.99 14.89 15.56L15.78 13.77C16.25 12.83 17.19 12.25 18.24 12.25H21.98C22.39 12.25 22.73 12.59 22.73 13C22.73 13.41 22.39 13.75 21.98 13.75H18.24C17.76 13.75 17.33 14.01 17.12 14.44L16.23 16.23C15.75 17.17 14.81 17.75 13.76 17.75Z" />
<path d="M19 8.75C16.93 8.75 15.25 7.07 15.25 5C15.25 2.93 16.93 1.25 19 1.25C21.07 1.25 22.75 2.93 22.75 5C22.75 7.07 21.07 8.75 19 8.75ZM19 2.75C17.76 2.75 16.75 3.76 16.75 5C16.75 6.24 17.76 7.25 19 7.25C20.24 7.25 21.25 6.24 21.25 5C21.25 3.76 20.24 2.75 19 2.75Z" />
<path d="M15 22.75H9C3.57 22.75 1.25 20.43 1.25 15V9C1.25 3.57 3.57 1.25 9 1.25H14C14.41 1.25 14.75 1.59 14.75 2C14.75 2.41 14.41 2.75 14 2.75H9C4.39 2.75 2.75 4.39 2.75 9V15C2.75 19.61 4.39 21.25 9 21.25H15C19.61 21.25 21.25 19.61 21.25 15V10C21.25 9.59 21.59 9.25 22 9.25C22.41 9.25 22.75 9.59 22.75 10V15C22.75 20.43 20.43 22.75 15 22.75Z" />
</svg>
